X: 363
T: A Sore Point
R: jig
M: 6/8
K: Gmajor
G2A|:BAG GFG|Gce gec|dBG GFG|GBd dBd|
cAc BGB|AFA GEG|FAG EGF|DFA cBA|
BAG GFG|Gce gec|dBG GFG|GBd dBG|
FAd AFD|^CEA GE^C|DFA dAF|1 D3 G2A:|2 D3 A2B||
|:cBA A^G=G|FED D^C=C|B,G,D B,G,B,|DB,D GDG|
BGB dBd|gdB dBG|DGB dBG|A3 AGA|
BAG GFG|Ggg ggg|gfe eee|edc d^c=c|
Bc^c dBG|cAF DFA|GDB GDB,|1 G,3 A2B:|2 G,6||

